assets/logosVetorizadas/Conectadas.svg

<svg xmlns="http://www.w3.org/2000/svg" width="855" height="843" fill="none"><g filter="url(#a)"><path stroke="#FF61C6" stroke-linejoin="round" stroke-width="11" d="M228.5 75v234h159V71H546m-238 0v159"/><path stroke="#FF61C6" stroke-linejoin="round" stroke-width="11" d="M231.5 388H546v237M307.5 467.5h159m0-161.5V150.5H704V73m79 234v81H625v263.5m-475-187V148m-79.5 78.5V385"/><path stroke="#FF61C6" stroke-linejoin="round" stroke-width="11" d="M783.5 150.5v79H546V307m77.5 1.5H702"/><circle cx="229" cy="71" r="21" fill="#FF61C6"/><circle cx="308" cy="71" r="21" fill="#FF61C6"/><circle cx="308" cy="229" r="21" fill="#FF61C6"/><circle cx="228" cy="388" r="21" fill="#FF61C6"/><circle cx="308" cy="467" r="21" fill="#FF61C6"/><circle cx="150" cy="467" r="21" fill="#FF61C6"/><circle cx="71" cy="388" r="21" fill="#FF61C6"/><circle cx="71" cy="230" r="21" fill="#FF61C6"/><circle cx="150" cy="150" r="21" fill="#FF61C6"/><circle cx="467" cy="467" r="21" fill="#FF61C6"/><circle cx="546" cy="626" r="21" fill="#FF61C6"/><circle cx="625" cy="652" r="21" fill="#FF61C6"/><circle cx="546" cy="71" r="21" fill="#FF61C6"/><circle cx="467" cy="309" r="21" fill="#FF61C6"/><circle cx="546" cy="309" r="21" fill="#FF61C6"/><circle cx="546" cy="309" r="21" fill="#FF61C6"/><circle cx="625" cy="309" r="21" fill="#FF61C6"/><circle cx="704" cy="309" r="21" fill="#FF61C6"/><circle cx="704" cy="71" r="21" fill="#FF61C6"/><circle cx="784" cy="151" r="21" fill="#FF61C6"/><circle cx="783" cy="309" r="21" fill="#FF61C6"/><path stroke="#FF61C6" stroke-width="11" d="M674 785.5h24c19 0 22.5-31-3.5-31-25 0-24-30.5-.5-30.5h21.5M613 791v-31m42.5 31v-31m-42.5 0v-17.5c0-9.5 9.5-19.5 21.5-19.5s21 10.5 21 19.5V760m-42.5 0h42.5m-104-36v61.5H570c16 0 22.5-11 22.5-22.5v-17c0-9.5-5-22-22.5-22h-18.5ZM488 791v-31m42.5 31v-31m-42.5 0v-17.5c0-9.5 9.5-19.5 21.5-19.5s21 10.5 21 19.5V760m-42.5 0h42.5M455 791v-67m0 0h-25m25 0h25.5"/><path stroke="#FF61C6" stroke-miterlimit="4.069" stroke-width="11" d="M418.501 736.687C408.5 717.688 386.75 719.689 379 735.188c-1.5 3.001-2 3.001-2 19 0 16-.063 15.875 2 20 7.751 15.5 29.501 18 39.501-1"/><path stroke="#FF61C6" stroke-width="11" d="M365.5 724H325v30.75m40.5 30.75H325v-30.75m0 0h36m-99 36.249V746c0-20 15.5-23 21.5-23s21 4 21 23v44.999M199 741.5c0-4.833 7.5-18.5 21.5-18.5s20.911 13.5 20.911 18.5v26c0 5.853-7.411 19-20.911 19-13.5 0-21.5-11.893-21.5-19v-26Z"/><path stroke="#FF61C6" stroke-miterlimit="4.069" stroke-width="11" d="M180.501 736.499C170.5 717.5 149.25 719.5 141.5 734.999 140 738 139 738 139 754s-.063 15.874 2 20c7.751 15.5 29.501 18 39.501-1"/></g><defs><filter id="a" width="855" height="842.132" x="0" y="0" color-interpolation-filters="sRGB" filterUnits="userSpaceOnUse"><feFlood flood-opacity="0" result="BackgroundImageFix"/><feColorMatrix in="SourceAlpha" result="hardAlpha" values="0 0 0 0 0 0 0 0 0 0 0 0 0 0 0 0 0 0 127 0"/><feOffset/><feGaussianBlur stdDeviation="25"/><feColorMatrix values="0 0 0 0 1 0 0 0 0 0.380392 0 0 0 0 0.776471 0 0 0 0.79 0"/><feBlend in2="BackgroundImageFix" result="effect1_dropShadow_24_79"/><feBlend in="SourceGraphic" in2="effect1_dropShadow_24_79" result="shape"/><feColorMatrix in="SourceAlpha" result="hardAlpha" values="0 0 0 0 0 0 0 0 0 0 0 0 0 0 0 0 0 0 127 0"/><feOffset dx="-4"/><feGaussianBlur stdDeviation="2"/><feComposite in2="hardAlpha" k2="-1" k3="1" operator="arithmetic"/><feColorMatrix values="0 0 0 0 0.596078 0 0 0 0 0.596078 0 0 0 0 0.596078 0 0 0 0.5 0"/><feBlend in2="shape" mode="color-burn" result="effect2_innerShadow_24_79"/><feColorMatrix in="SourceAlpha" result="hardAlpha" values="0 0 0 0 0 0 0 0 0 0 0 0 0 0 0 0 0 0 127 0"/><feOffset dx="4"/><feGaussianBlur stdDeviation="2"/><feComposite in2="hardAlpha" k2="-1" k3="1" operator="arithmetic"/><feColorMatrix values="0 0 0 0 0.596078 0 0 0 0 0.596078 0 0 0 0 0.596078 0 0 0 0.5 0"/><feBlend in2="effect2_innerShadow_24_79" mode="color-burn" result="effect3_innerShadow_24_79"/><feColorMatrix in="SourceAlpha" result="hardAlpha" values="0 0 0 0 0 0 0 0 0 0 0 0 0 0 0 0 0 0 127 0"/><feOffset dy="-4"/><feGaussianBlur stdDeviation="2"/><feComposite in2="hardAlpha" k2="-1" k3="1" operator="arithmetic"/><feColorMatrix values="0 0 0 0 0.596078 0 0 0 0 0.596078 0 0 0 0 0.596078 0 0 0 0.5 0"/><feBlend in2="effect3_innerShadow_24_79" mode="color-burn" result="effect4_innerShadow_24_79"/><feColorMatrix in="SourceAlpha" result="hardAlpha" values="0 0 0 0 0 0 0 0 0 0 0 0 0 0 0 0 0 0 127 0"/><feOffset dy="4"/><feGaussianBlur stdDeviation="2"/><feComposite in2="hardAlpha" k2="-1" k3="1" operator="arithmetic"/><feColorMatrix values="0 0 0 0 0.596078 0 0 0 0 0.596078 0 0 0 0 0.596078 0 0 0 0.5 0"/><feBlend in2="effect4_innerShadow_24_79" mode="color-burn" result="effect5_innerShadow_24_79"/></filter></defs></svg>

<svg width="855" height="843" viewBox="0 0 855 843" fill="none" xmlns="http://www.w3.org/2000/svg">
<g filter="url(#filter0_diiii_24_79)">
<path d="M228.5 75L228.5 309H387.5V71H546M308 71V230" stroke="#FF61C6" stroke-width="11" stroke-linejoin="round"/>
<path d="M231.5 388H546V625M307.5 467.5H466.5M466.5 306V150.5H704V73" stroke="#FF61C6" stroke-width="11" stroke-linejoin="round"/>
<path d="M783 307V388H625V651.5M150 464.5V148M70.5 226.5V385" stroke="#FF61C6" stroke-width="11" stroke-linejoin="round"/>
<path d="M783.5 150.5V229.5H546V307" stroke="#FF61C6" stroke-width="11" stroke-linejoin="round"/>
<path d="M623.5 308.5H702" stroke="#FF61C6" stroke-width="11" stroke-linejoin="round"/>
<circle cx="229" cy="71" r="21" fill="#FF61C6"/>
<circle cx="308" cy="71" r="21" fill="#FF61C6"/>
<circle cx="308" cy="229" r="21" fill="#FF61C6"/>
<circle cx="228" cy="388" r="21" fill="#FF61C6"/>
<circle cx="308" cy="467" r="21" fill="#FF61C6"/>
<circle cx="150" cy="467" r="21" fill="#FF61C6"/>
<circle cx="71" cy="388" r="21" fill="#FF61C6"/>
<circle cx="71" cy="230" r="21" fill="#FF61C6"/>
<circle cx="150" cy="150" r="21" fill="#FF61C6"/>
<circle cx="467" cy="467" r="21" fill="#FF61C6"/>
<circle cx="546" cy="626" r="21" fill="#FF61C6"/>
<circle cx="625" cy="652" r="21" fill="#FF61C6"/>
<circle cx="546" cy="71" r="21" fill="#FF61C6"/>
<circle cx="467" cy="309" r="21" fill="#FF61C6"/>
<circle cx="546" cy="309" r="21" fill="#FF61C6"/>
<circle cx="546" cy="309" r="21" fill="#FF61C6"/>
<circle cx="625" cy="309" r="21" fill="#FF61C6"/>
<circle cx="704" cy="309" r="21" fill="#FF61C6"/>
<circle cx="704" cy="71" r="21" fill="#FF61C6"/>
<circle cx="784" cy="151" r="21" fill="#FF61C6"/>
<circle cx="783" cy="309" r="21" fill="#FF61C6"/>
<path d="M674 785.5C680.5 785.5 679 785.5 698 785.5C717 785.5 720.5 754.5 694.5 754.5C669.5 754.5 670.5 724 694 724C699.5 724 715.5 724 715.5 724" stroke="#FF61C6" stroke-width="11"/>
<path d="M613 791C613 784.5 613 767.5 613 760M655.5 791C655.5 784 655.5 770.5 655.5 760M613 760C613 752.5 613 752 613 742.5C613 733 622.5 723 634.5 723C646.5 723 655.5 733.5 655.5 742.5C655.5 751.5 655.5 751.5 655.5 760M613 760H655.5" stroke="#FF61C6" stroke-width="11"/>
<path d="M551.5 724L551.5 785.5H570C586 785.5 592.5 774.5 592.5 763V746C592.5 736.5 587.5 724 570 724H551.5Z" stroke="#FF61C6" stroke-width="11"/>
<path d="M488 791C488 784.5 488 767.5 488 760M530.5 791C530.5 784 530.5 770.5 530.5 760M488 760C488 752.5 488 752 488 742.5C488 733 497.5 723 509.5 723C521.5 723 530.5 733.5 530.5 742.5C530.5 751.5 530.5 751.5 530.5 760M488 760H530.5" stroke="#FF61C6" stroke-width="11"/>
<path d="M455 791V724M455 724H430M455 724H480.5" stroke="#FF61C6" stroke-width="11"/>
<path d="M418.501 736.687C408.5 717.688 386.75 719.689 379 735.188C377.5 738.189 377 738.189 377 754.188C377 770.188 376.937 770.063 379 774.188C386.751 789.688 408.501 792.188 418.501 773.188" stroke="#FF61C6" stroke-width="11" stroke-miterlimit="4.0688"/>
<path d="M365.5 724H325V754.75M365.5 785.5H325V754.75M325 754.75H361" stroke="#FF61C6" stroke-width="11"/>
<path d="M262 790.999C262 777.999 262 766 262 746C262 726 277.5 723 283.5 723C289.5 723 304.5 727 304.5 746C304.5 765 304.5 778 304.5 790.999" stroke="#FF61C6" stroke-width="11"/>
<path d="M199 741.5C199 736.667 206.5 723 220.5 723C234.5 723 241.411 736.5 241.411 741.5V767.5C241.411 773.353 234 786.5 220.5 786.5C207 786.5 199 774.607 199 767.5L199 741.5Z" stroke="#FF61C6" stroke-width="11"/>
<path d="M180.501 736.499C170.5 717.5 149.25 719.5 141.5 734.999C140 738 139 738 139 754C139 770 138.937 769.874 141 774C148.751 789.5 170.501 792 180.501 773" stroke="#FF61C6" stroke-width="11" stroke-miterlimit="4.0688"/>
</g>
<defs>
<filter id="filter0_diiii_24_79" x="0" y="0" width="855" height="842.132" filterUnits="userSpaceOnUse" color-interpolation-filters="sRGB">
<feFlood flood-opacity="0" result="BackgroundImageFix"/>
<feColorMatrix in="SourceAlpha" type="matrix" values="0 0 0 0 0 0 0 0 0 0 0 0 0 0 0 0 0 0 127 0" result="hardAlpha"/>
<feOffset/>
<feGaussianBlur stdDeviation="25"/>
<feColorMatrix type="matrix" values="0 0 0 0 1 0 0 0 0 0.380392 0 0 0 0 0.776471 0 0 0 0.79 0"/>
<feBlend mode="normal" in2="BackgroundImageFix" result="effect1_dropShadow_24_79"/>
<feBlend mode="normal" in="SourceGraphic" in2="effect1_dropShadow_24_79" result="shape"/>
<feColorMatrix in="SourceAlpha" type="matrix" values="0 0 0 0 0 0 0 0 0 0 0 0 0 0 0 0 0 0 127 0" result="hardAlpha"/>
<feOffset dx="-4"/>
<feGaussianBlur stdDeviation="2"/>
<feComposite in2="hardAlpha" operator="arithmetic" k2="-1" k3="1"/>
<feColorMatrix type="matrix" values="0 0 0 0 0.596078 0 0 0 0 0.596078 0 0 0 0 0.596078 0 0 0 0.5 0"/>
<feBlend mode="color-burn" in2="shape" result="effect2_innerShadow_24_79"/>
<feColorMatrix in="SourceAlpha" type="matrix" values="0 0 0 0 0 0 0 0 0 0 0 0 0 0 0 0 0 0 127 0" result="hardAlpha"/>
<feOffset dx="4"/>
<feGaussianBlur stdDeviation="2"/>
<feComposite in2="hardAlpha" operator="arithmetic" k2="-1" k3="1"/>
<feColorMatrix type="matrix" values="0 0 0 0 0.596078 0 0 0 0 0.596078 0 0 0 0 0.596078 0 0 0 0.5 0"/>
<feBlend mode="color-burn" in2="effect2_innerShadow_24_79" result="effect3_innerShadow_24_79"/>
<feColorMatrix in="SourceAlpha" type="matrix" values="0 0 0 0 0 0 0 0 0 0 0 0 0 0 0 0 0 0 127 0" result="hardAlpha"/>
<feOffset dy="-4"/>
<feGaussianBlur stdDeviation="2"/>
<feComposite in2="hardAlpha" operator="arithmetic" k2="-1" k3="1"/>
<feColorMatrix type="matrix" values="0 0 0 0 0.596078 0 0 0 0 0.596078 0 0 0 0 0.596078 0 0 0 0.5 0"/>
<feBlend mode="color-burn" in2="effect3_innerShadow_24_79" result="effect4_innerShadow_24_79"/>
<feColorMatrix in="SourceAlpha" type="matrix" values="0 0 0 0 0 0 0 0 0 0 0 0 0 0 0 0 0 0 127 0" result="hardAlpha"/>
<feOffset dy="4"/>
<feGaussianBlur stdDeviation="2"/>
<feComposite in2="hardAlpha" operator="arithmetic" k2="-1" k3="1"/>
<feColorMatrix type="matrix" values="0 0 0 0 0.596078 0 0 0 0 0.596078 0 0 0 0 0.596078 0 0 0 0.5 0"/>
<feBlend mode="color-burn" in2="effect4_innerShadow_24_79" result="effect5_innerShadow_24_79"/>
</filter>
</defs>
</svg>
